svgs/sharp-regular/trees.svg

<svg xmlns="http://www.w3.org/2000/svg" viewBox="0 0 640 512"><!--! Font Awesome Pro 6.6.0 by @fontawesome - https://fontawesome.com License - https://fontawesome.com/license (Commercial License) Copyright 2024 Fonticons, Inc. --><path d="M352 168.7l0-8.7-14.4-16L240.3 35.9 208 0 175.7 35.9 78.4 144 64 160l0 8.7L64 192l32 0L64 236l-2.9 4L43.6 264 32 280l0 15.7L32 312l48 0L43.1 360 12.3 400 0 416l0 32 48 0 136 0 0 40 0 24 48 0 0-24 0-40 40 0 96 0 40 0 0 40 0 24 48 0 0-24 0-40 136 0 48 0 0-32-12.3-16-30.8-40L560 312l48 0 0-16.3 0-15.7-11.6-16-17.5-24-2.9-4-32-44 32 0 0-23.3 0-8.7-14.4-16L464.3 35.9 432 0 399.7 35.9l-58.2 64.7 32.3 35.9L432 71.8 497 144l-17 0 0 41.6 25.2 34.6L537 264l-41 0 0 43.5 26 33.7L567.1 400 456 400l0-184 0-24-48 0 0 24 0 184-4.3 0-30.8-40L336 312l48 0 0-16.3 0-15.7-11.6-16-17.5-24-2.9-4-32-44 32 0 0-23.3zM72.9 400L118 341.3l26-33.7 0-43.5-41 0 31.8-43.8L160 185.6l0-41.6-17 0 65-72.2L273 144l-17 0 0 41.6 25.2 34.6L313 264l-41 0 0 43.5 26 33.7L343.1 400l-46.3 0-60.6 0-4.3 0 0-184 0-24-48 0 0 24 0 184L72.9 400z"/></svg>

<svg xmlns="http://www.w3.org/2000/svg" viewBox="0 0 640 512"><!--! Font Awesome Pro 6.5.2 by @fontawesome - https://fontawesome.com License - https://fontawesome.com/license (Commercial License) Copyright 2024 Fonticons, Inc. --><path d="M352 168.7V160l-14.4-16L240.3 35.9 208 0 175.7 35.9 78.4 144 64 160v8.7V192H96L64 236l-2.9 4L43.6 264 32 280v15.7V312H80L43.1 360 12.3 400 0 416v32H48 184v40 24h48V488 448h40 96 40v40 24h48V488 448H592h48V416l-12.3-16-30.8-40L560 312h48V295.7 280l-11.6-16-17.5-24-2.9-4-32-44h32V168.7 160l-14.4-16L464.3 35.9 432 0 399.7 35.9l-58.2 64.7 32.3 35.9L432 71.8 497 144H480v41.6l25.2 34.6L537 264H496v43.5l26 33.7L567.1 400H456V216 192H408v24V400h-4.3l-30.8-40L336 312h48V295.7 280l-11.6-16-17.5-24-2.9-4-32-44h32V168.7zM72.9 400L118 341.3l26-33.7V264H103l31.8-43.8L160 185.6V144H143l65-72.2L273 144H256v41.6l25.2 34.6L313 264H272v43.5l26 33.7L343.1 400H296.9 236.3 232V216 192H184v24V400H72.9z"/></svg>
